X:96
T:96. Spiritual Antiphon (3rds CCW) — bass-and-chord LH + call-response RH
T:Antiphonal texture — LH drives, RH trades with rhythm on off-beats
C:Full 7-mode cycle
M:4/4
L:1/4
Q:1/4=80
%%score {V1 V2}
V:V1 clef=treble
V:V2 clef=bass
K:C
[V:V1] "C" z2 e g | "Am" z2 c' e' | "F" z2 a c' | "Dm" z2 f a | "B°" z2 d' f' | "G" z2 b d' | "Em" z2 g b | "C" z2 e g |]
[V:V2] "_8"C, [E,G,C] C, [E,G,C] | "_8"A, [CEA] A, [CEA] | "_8"F, [A,CF] F, [A,CF] | "_8"D, [F,A,D] D, [F,A,D] | "_8"B, [DFB] B, [DFB] | "_8"G, [B,DG] G, [B,DG] | "_8"E, [G,B,E] E, [G,B,E] | "_8"C, [E,G,C] C, [E,G,C] |]

